assets/img/podcast/listen/apple-podcasts.svg

<svg xmlns="http://www.w3.org/2000/svg" width="100" height="30" fill="none" viewBox="0 0 100 30"><rect width="100" height="30" fill="#fff"/><rect width="100" height="30" fill="url(#paint0_linear)"/><path fill="#fff" d="M17.0396 17.1752C16.6135 16.7263 15.8652 16.4372 14.9813 16.4372C14.1063 16.4372 13.358 16.725 12.9268 17.1752C12.7113 17.4099 12.5844 17.6508 12.5591 17.9932C12.4957 18.6565 12.5337 19.2284 12.6098 20.1415C12.6859 21.0166 12.8254 22.1833 13.0156 23.3627C13.1551 24.2124 13.2566 24.6563 13.358 24.986C13.5229 25.5187 14.1063 25.9752 15.0194 25.9752C15.9451 25.9752 16.5285 25.5187 16.6807 24.986C16.7821 24.669 16.8836 24.2124 17.0231 23.3627C17.2133 22.1833 17.3528 21.0293 17.4289 20.1542C17.505 19.2411 17.5557 18.6704 17.4796 18.011C17.4416 17.6686 17.3275 17.4276 17.1119 17.1993L17.0396 17.1752ZM12.6605 13.1716C12.6605 14.455 13.7004 15.4962 14.994 15.4962C16.2875 15.4962 17.3275 14.4563 17.3275 13.1716C17.3275 11.8882 16.2875 10.847 15.0067 10.847C13.7258 10.847 12.6859 11.8869 12.6859 13.1716H12.6605ZM14.956 4.00005C9.52811 4.01526 5.07677 8.42602 5.00067 13.8602C4.94995 18.2634 7.76532 22.0299 11.684 23.4097C11.7855 23.4426 11.8743 23.364 11.8616 23.2638C11.8108 22.9214 11.7601 22.579 11.7221 22.2404C11.7094 22.1212 11.6333 22.0185 11.5192 21.9703C8.42478 20.6133 6.25618 17.5037 6.29423 13.9008C6.34495 9.17045 10.2002 5.31516 14.9306 5.27711C19.7624 5.23907 23.7191 9.1603 23.7191 13.9858C23.7191 17.5532 21.5632 20.626 18.4815 21.9703C18.3801 22.0185 18.304 22.1225 18.2786 22.2404C18.2406 22.5777 18.1898 22.9214 18.1391 23.2626C18.1264 23.364 18.2279 23.4401 18.3166 23.4084C22.21 22.0413 25 18.3331 25 13.9858C25 8.46914 20.5106 3.98356 14.9813 4.00005H14.956ZM14.7784 8.58201C17.8601 8.4628 20.4092 10.9345 20.4092 13.9896C20.4092 15.5431 19.7497 16.9444 18.6971 17.9336C18.6083 18.0186 18.5703 18.1365 18.5703 18.2596C18.5956 18.6311 18.583 18.9926 18.5576 19.4009C18.5576 19.5087 18.6717 19.5785 18.7732 19.5151C20.536 18.3103 21.7027 16.2837 21.7027 13.9896C21.7027 10.2129 18.5576 7.15656 14.753 7.30621C11.2148 7.44191 8.37405 10.36 8.33601 13.9033C8.31065 16.233 9.47738 18.2963 11.2655 19.5176C11.3543 19.5683 11.4811 19.5049 11.4684 19.3908C11.4431 18.985 11.4431 18.6172 11.4684 18.2494C11.4684 18.1226 11.4304 18.0084 11.3416 17.9197C10.2637 16.8924 9.59152 15.434 9.64224 13.8234C9.71833 10.9827 12.0011 8.6619 14.8418 8.56045L14.7784 8.58201Z"/><rect width="66" height="24" x="31" y="3" fill="#fff"/><path fill="#000" d="M56.0679 13H57.2852L55.0308 6.65869H53.7563L51.5063 13H52.6533L53.1982 11.3784H55.5317L56.0679 13ZM54.332 7.86719H54.4067L55.2681 10.4819H53.4619L54.332 7.86719ZM60.8799 8.11328C60.2207 8.11328 59.6626 8.44287 59.3857 8.98779H59.311V8.19238H58.2607V14.5996H59.3506V12.2705H59.4253C59.6714 12.7803 60.2031 13.0791 60.8931 13.0791C62.106 13.0791 62.8618 12.1299 62.8618 10.5962C62.8618 9.05371 62.0972 8.11328 60.8799 8.11328ZM60.5371 12.1519C59.7944 12.1519 59.333 11.5586 59.3286 10.5962C59.333 9.63818 59.7988 9.04053 60.5415 9.04053C61.2886 9.04053 61.7412 9.625 61.7412 10.5962C61.7412 11.5674 61.293 12.1519 60.5371 12.1519ZM66.5752 8.11328C65.916 8.11328 65.3579 8.44287 65.0811 8.98779H65.0063V8.19238H63.9561V14.5996H65.0459V12.2705H65.1206C65.3667 12.7803 65.8984 13.0791 66.5884 13.0791C67.8013 13.0791 68.5571 12.1299 68.5571 10.5962C68.5571 9.05371 67.7925 8.11328 66.5752 8.11328ZM66.2324 12.1519C65.4897 12.1519 65.0283 11.5586 65.0239 10.5962C65.0283 9.63818 65.4941 9.04053 66.2368 9.04053C66.9839 9.04053 67.4365 9.625 67.4365 10.5962C67.4365 11.5674 66.9883 12.1519 66.2324 12.1519ZM69.6953 13H70.7852V6.3335H69.6953V13ZM74.1821 8.96143C74.8369 8.96143 75.2676 9.41846 75.2896 10.1304H73.0264C73.0747 9.42725 73.5317 8.96143 74.1821 8.96143ZM75.2983 11.6772C75.1401 12.0332 74.7666 12.231 74.2261 12.231C73.5098 12.231 73.0483 11.73 73.022 10.9302V10.873H76.3794V10.5215C76.3794 9.00537 75.5576 8.0957 74.1865 8.0957C72.7935 8.0957 71.9277 9.06689 71.9277 10.6138C71.9277 12.1606 72.7803 13.0967 74.1953 13.0967C75.3291 13.0967 76.1245 12.5518 76.3311 11.6772H75.2983ZM44.3916 17.6587V24H45.5254V21.9214H46.9009C48.1841 21.9214 49.0806 21.0601 49.0806 19.8032C49.0806 18.5244 48.2148 17.6587 46.9492 17.6587H44.3916ZM45.5254 18.6079H46.6504C47.4678 18.6079 47.9292 19.0254 47.9292 19.8032C47.9292 20.5591 47.4546 20.981 46.646 20.981H45.5254V18.6079ZM52.1611 24.0967C53.5981 24.0967 54.4727 23.1562 54.4727 21.5962C54.4727 20.0405 53.5938 19.0957 52.1611 19.0957C50.7329 19.0957 49.8496 20.0449 49.8496 21.5962C49.8496 23.1562 50.7197 24.0967 52.1611 24.0967ZM52.1611 23.1826C51.4009 23.1826 50.9658 22.6025 50.9658 21.5962C50.9658 20.5942 51.4009 20.0098 52.1611 20.0098C52.917 20.0098 53.3521 20.5942 53.3521 21.5962C53.3521 22.6025 52.9214 23.1826 52.1611 23.1826ZM57.3115 24.0791C57.9795 24.0791 58.5332 23.7671 58.8057 23.2397H58.8804V24H59.9351V17.3335H58.8452V19.957H58.7705C58.5156 19.4297 57.9707 19.1133 57.3115 19.1133C56.0986 19.1133 55.334 20.0713 55.334 21.5918C55.334 23.1211 56.0942 24.0791 57.3115 24.0791ZM57.6499 20.0405C58.397 20.0405 58.8584 20.6382 58.8584 21.5962C58.8584 22.563 58.4014 23.1519 57.6499 23.1519C56.9028 23.1519 56.4502 22.5674 56.4502 21.5962C56.4502 20.6294 56.9072 20.0405 57.6499 20.0405ZM65.4634 20.8096C65.3491 19.7988 64.6021 19.0957 63.3672 19.0957C61.9214 19.0957 61.0732 20.0229 61.0732 21.583C61.0732 23.165 61.9258 24.0967 63.3716 24.0967C64.5889 24.0967 65.3447 23.4199 65.4634 22.4136H64.4263C64.312 22.9146 63.9341 23.1826 63.3672 23.1826C62.6245 23.1826 62.1763 22.5938 62.1763 21.583C62.1763 20.5854 62.6201 20.0098 63.3672 20.0098C63.9648 20.0098 64.3252 20.3438 64.4263 20.8096H65.4634ZM68.1484 23.2222C67.665 23.2222 67.3179 22.9805 67.3179 22.5762C67.3179 22.1851 67.6035 21.9653 68.2144 21.9258L69.2998 21.8555V22.2378C69.2998 22.7959 68.8076 23.2222 68.1484 23.2222ZM67.8276 24.0791C68.4561 24.0791 68.9834 23.8066 69.2515 23.3408H69.3262V24H70.3765V20.7173C70.3765 19.6978 69.6821 19.0957 68.4473 19.0957C67.3047 19.0957 66.5093 19.6362 66.4214 20.4844H67.4497C67.5508 20.1592 67.8936 19.9834 68.3945 19.9834C68.9834 19.9834 69.2998 20.2471 69.2998 20.7173V21.1216L68.0605 21.1963C66.8916 21.2666 66.2368 21.7676 66.2368 22.6377C66.2368 23.5166 66.9004 24.0791 67.8276 24.0791ZM71.5806 20.5679C71.5806 21.293 72.0156 21.7192 72.9385 21.9302L73.791 22.1279C74.248 22.229 74.4546 22.4004 74.4546 22.6729C74.4546 23.0288 74.0723 23.2705 73.5229 23.2705C72.978 23.2705 72.6396 23.0596 72.5342 22.7036H71.4575C71.541 23.5781 72.2969 24.0967 73.4966 24.0967C74.6963 24.0967 75.5444 23.4814 75.5444 22.5586C75.5444 21.8511 75.1182 21.4556 74.1997 21.249L73.3516 21.0557C72.8682 20.9458 72.6396 20.7788 72.6396 20.5063C72.6396 20.1592 73.0132 19.9219 73.5098 19.9219C74.0195 19.9219 74.3403 20.1372 74.4194 20.4756H75.4434C75.3643 19.6011 74.6479 19.0957 73.5054 19.0957C72.3716 19.0957 71.5806 19.6978 71.5806 20.5679ZM76.9595 18.0146V19.2231H76.1992V20.0933H76.9595V22.7168C76.9595 23.6484 77.3989 24.022 78.502 24.022C78.7129 24.022 78.915 24 79.0732 23.9692V23.1167C78.9414 23.1299 78.8579 23.1387 78.7041 23.1387C78.2471 23.1387 78.0449 22.9277 78.0449 22.4531V20.0933H79.0732V19.2231H78.0449V18.0146H76.9595ZM79.9917 20.5679C79.9917 21.293 80.4268 21.7192 81.3496 21.9302L82.2021 22.1279C82.6592 22.229 82.8657 22.4004 82.8657 22.6729C82.8657 23.0288 82.4834 23.2705 81.9341 23.2705C81.3892 23.2705 81.0508 23.0596 80.9453 22.7036H79.8687C79.9521 23.5781 80.708 24.0967 81.9077 24.0967C83.1074 24.0967 83.9556 23.4814 83.9556 22.5586C83.9556 21.8511 83.5293 21.4556 82.6108 21.249L81.7627 21.0557C81.2793 20.9458 81.0508 20.7788 81.0508 20.5063C81.0508 20.1592 81.4243 19.9219 81.9209 19.9219C82.4307 19.9219 82.7515 20.1372 82.8306 20.4756H83.8545C83.7754 19.6011 83.0591 19.0957 81.9165 19.0957C80.7827 19.0957 79.9917 19.6978 79.9917 20.5679Z"/><defs><linearGradient id="paint0_linear" x1="50" x2="50" y1="0" y2="30" gradientUnits="userSpaceOnUse"><stop stop-color="#F452FF"/><stop offset="1" stop-color="#832BC1"/></linearGradient></defs></svg>

<svg xmlns="http://www.w3.org/2000/svg" width="100" height="30" fill="none"><path fill="#fff" d="M0 0H100V30H0z"/><path fill="url(#paint0_linear)" d="M0 0H100V30H0z"/><path fill="#fff" d="M17.04 17.175c-.427-.449-1.175-.738-2.059-.738-.875 0-1.623.288-2.054.738-.216.235-.343.476-.368.818-.063.664-.025 1.235.05 2.149.077.875.216 2.041.407 3.22.14.85.24 1.294.342 1.624.165.533.748.99 1.661.99.926 0 1.51-.457 1.662-.99.101-.317.203-.774.342-1.623.19-1.18.33-2.334.406-3.209.076-.913.127-1.484.05-2.143a1.306 1.306 0 0 0-.367-.812l-.072-.024zm-4.38-4.003a2.326 2.326 0 0 0 2.334 2.324 2.325 2.325 0 1 0 .013-4.649c-1.281 0-2.321 1.04-2.321 2.325h-.025zM14.957 4c-5.428.015-9.88 4.426-9.955 9.86-.051 4.403 2.764 8.17 6.683 9.55a.133.133 0 0 0 .178-.146c-.051-.343-.102-.685-.14-1.024a.33.33 0 0 0-.203-.27c-3.094-1.357-5.263-4.466-5.225-8.07.051-4.73 3.906-8.585 8.637-8.623 4.831-.038 8.788 3.883 8.788 8.709 0 3.567-2.156 6.64-5.238 7.984a.39.39 0 0 0-.202.27 29.43 29.43 0 0 1-.14 1.023.137.137 0 0 0 .178.145C22.21 22.041 25 18.333 25 13.986 25 8.469 20.51 3.984 14.981 4h-.025zm-.178 4.582a5.422 5.422 0 0 1 5.631 5.408c0 1.553-.66 2.954-1.712 3.944a.44.44 0 0 0-.127.326 8.64 8.64 0 0 1-.012 1.14c0 .109.114.178.215.115a6.692 6.692 0 0 0 2.93-5.525c0-3.777-3.145-6.833-6.95-6.684-3.538.136-6.379 3.054-6.417 6.597a6.7 6.7 0 0 0 2.93 5.615c.088.05.215-.013.202-.127a8.586 8.586 0 0 1 0-1.142.449.449 0 0 0-.126-.33c-1.078-1.027-1.75-2.485-1.7-4.096.076-2.84 2.36-5.161 5.2-5.263l-.064.022z"/><path fill="#fff" d="M31 3H97V27H31z"/><path fill="#000" d="M56.068 13h1.217l-2.254-6.341h-1.275L51.506 13h1.147l.545-1.622h2.334L56.068 13zm-1.736-5.133h.075l.861 2.615h-1.806l.87-2.615zm6.548.246c-.66 0-1.217.33-1.494.875h-.075v-.796h-1.05V14.6h1.09v-2.33h.074c.246.51.778.81 1.468.81 1.213 0 1.969-.95 1.969-2.484 0-1.542-.765-2.483-1.982-2.483zm-.343 4.039c-.743 0-1.204-.593-1.208-1.556.004-.958.47-1.555 1.212-1.555.748 0 1.2.584 1.2 1.555s-.448 1.556-1.204 1.556zm6.038-4.039c-.659 0-1.217.33-1.494.875h-.075v-.796h-1.05V14.6h1.09v-2.33h.075c.246.51.777.81 1.467.81 1.213 0 1.97-.95 1.97-2.484 0-1.542-.766-2.483-1.983-2.483zm-.343 4.039c-.742 0-1.204-.593-1.208-1.556.004-.958.47-1.555 1.213-1.555.747 0 1.2.584 1.2 1.555s-.449 1.556-1.205 1.556zm3.463.848h1.09V6.333h-1.09V13zm4.487-4.039c.655 0 1.086.457 1.108 1.17h-2.264c.049-.704.506-1.17 1.156-1.17zm1.116 2.716c-.158.356-.531.554-1.072.554-.716 0-1.178-.501-1.204-1.3v-.058h3.357v-.351c0-1.517-.821-2.426-2.193-2.426-1.393 0-2.258.97-2.258 2.518 0 1.547.852 2.483 2.267 2.483 1.134 0 1.93-.545 2.136-1.42h-1.033zM44.392 17.66V24h1.133v-2.079h1.376c1.283 0 2.18-.86 2.18-2.118 0-1.279-.866-2.144-2.132-2.144h-2.557zm1.133.949h1.125c.818 0 1.28.417 1.28 1.195 0 .756-.475 1.178-1.284 1.178h-1.12v-2.373zm6.636 5.489c1.437 0 2.312-.94 2.312-2.5 0-1.556-.88-2.501-2.312-2.501-1.428 0-2.311.949-2.311 2.5 0 1.56.87 2.5 2.311 2.5zm0-.914c-.76 0-1.195-.58-1.195-1.587 0-1.002.435-1.586 1.195-1.586.756 0 1.191.584 1.191 1.586 0 1.006-.43 1.587-1.19 1.587zm5.15.896c.669 0 1.222-.312 1.495-.84h.074V24h1.055v-6.666h-1.09v2.623h-.075c-.254-.527-.8-.844-1.459-.844-1.212 0-1.977.958-1.977 2.479 0 1.53.76 2.487 1.977 2.487zm.339-4.038c.747 0 1.208.597 1.208 1.555 0 .967-.457 1.556-1.208 1.556-.747 0-1.2-.585-1.2-1.556 0-.967.457-1.555 1.2-1.555zm7.813.769c-.114-1.011-.86-1.714-2.096-1.714-1.446 0-2.294.927-2.294 2.487 0 1.582.853 2.514 2.299 2.514 1.217 0 1.973-.677 2.091-1.683h-1.037c-.114.5-.492.769-1.059.769-.742 0-1.19-.59-1.19-1.6 0-.998.443-1.573 1.19-1.573.598 0 .958.334 1.06.8h1.036zm2.685 2.412c-.483 0-.83-.242-.83-.646 0-.39.285-.61.896-.65l1.086-.07v.382c0 .558-.492.984-1.152.984zm-.32.857c.628 0 1.155-.272 1.423-.738h.075V24h1.05v-3.283c0-1.02-.694-1.621-1.929-1.621-1.142 0-1.938.54-2.026 1.388h1.029c.1-.325.444-.5.944-.5.59 0 .906.263.906.733v.405l-1.24.074c-1.168.07-1.823.572-1.823 1.442 0 .879.663 1.441 1.59 1.441zm3.753-3.511c0 .725.435 1.151 1.358 1.362l.852.198c.457.101.664.272.664.545 0 .356-.383.598-.932.598-.545 0-.883-.211-.989-.567h-1.077c.084.874.84 1.393 2.04 1.393 1.2 0 2.047-.616 2.047-1.538 0-.708-.426-1.103-1.344-1.31l-.848-.193c-.484-.11-.712-.277-.712-.55 0-.347.373-.584.87-.584.51 0 .83.215.91.554h1.023c-.079-.875-.795-1.38-1.938-1.38-1.133 0-1.924.602-1.924 1.472zm5.379-2.553v1.208h-.76v.87h.76v2.624c0 .931.439 1.305 1.542 1.305.21 0 .413-.022.571-.053v-.852c-.132.013-.215.022-.369.022-.457 0-.66-.211-.66-.686v-2.36h1.03v-.87h-1.03v-1.208H76.96zm3.032 2.553c0 .725.435 1.151 1.358 1.362l.852.198c.457.101.664.272.664.545 0 .356-.383.598-.932.598-.545 0-.883-.211-.989-.567H79.87c.083.874.839 1.393 2.039 1.393 1.2 0 2.048-.616 2.048-1.538 0-.708-.427-1.103-1.345-1.31l-.848-.193c-.484-.11-.712-.277-.712-.55 0-.347.373-.584.87-.584.51 0 .83.215.91.554h1.023c-.079-.875-.795-1.38-1.938-1.38-1.133 0-1.924.602-1.924 1.472z"/><defs><linearGradient id="paint0_linear" x1="50" x2="50" y2="30" gradientUnits="userSpaceOnUse"><stop stop-color="#F452FF"/><stop offset="1" stop-color="#832BC1"/></linearGradient></defs></svg>
